X: 35318
T: Rosebuds In Summer
R: reel
M: 4/4
K: Cmajor
cG G/G/G AG (3EFG|cGEG Adde|cG G/G/G AG (3EFG|ABcd efed|
cG G/G/G AG (3EFG|cGEG Adde|cG G/G/G AGED|CD (3EFG ABce||
gc c/c/c gcac|gcec Adde|gc c/c/c gcac|ABcd edef|
gc c/c/c ac c/c/c|gcec Adde|ac'ga egdc|ABcd efed||

